X:15
T:GB/7d/15 Merry Broomfield
%%VWML:GB-7d-15-0
F:http://www.vwml.org/record/GB/7d/15
C:Transcribed by Simon Furey and Lewis Jones
L:1/8
M:4/4
I:linebreak $
K:C
EF | G2 EF G2 EF |"^(a)" G2 DE !fermata!C2 CC | DEFA AGEC | D4- D3 C |$ CE (3GAB c2 Ac | GGAG C2 CE | EDFG BAFD | C6 ||$ EF | G2 EF G2 EF |"^(a) var." GC DE !fermata!C2 CC | DEFA AGEC |
D4- D3 C |$ CE (3GAB c2 Ac | GGAG C2 CE | EDFG BAFD | C6 |]

